X:1
T:The Green Grassy Slopes
M:4/4
L:1/8
K:F
E-F| G2 G3/2 G/2 G2 c3/2 B/2| B A- A4 E3/2 F/2| G2 GG G2 c3/2 B/2|\
 A6|A-B| c2 dcB-A GF| E D- D4 d2| c2 AF C2 EG| F6| E3/2- F| G2 G3/2 G/2 G2 c3/2 B/2|\
 B A- A4 EF| G2 GG G2 c3/2 B/2| A6| A3/2 B/2| c2 dcB-A GF| E D- D4 dd|\
 c2 AF C2 EG| F6| EF| G2 GG G2 c3/2 B/2| A6 EF| GG GG G2 c3/2 B/2|\
 A6|A-B| c2 dc BA GF| E D- D4 dd| c2 AF C2 D3/2 E/2| F6||
